lib/brands/icons/ms-power-bi.svg

<svg xmlns="http://www.w3.org/2000/svg" fill="none" aria-hidden="true" viewBox="0 0 48 48"><g id="ms-power-bi-Icon"><g id="Group"><mask id="mask0_94_18836" width="30" height="40" x="9" y="4" maskUnits="userSpaceOnUse" style="mask-type:alpha"><g id="Mask"><path id="Vector" fill="white" d="M25.6667 5.66667C25.6667 4.74619 26.4129 4 27.3333 4H37.3333C38.2538 4 39 4.74619 39 5.66667V42.3333C39 43.2538 38.2538 44 37.3333 44H10.6667C9.74621 44 9 43.2538 9 42.3333V25.6667C9 24.7462 9.74621 24 10.6667 24H17.3334V15.6667C17.3334 14.7462 18.0796 14 19 14H25.6667V5.66667Z"/></g></mask><g mask="url(#mask0_94_18836)"><g id="Group_2"><path id="Vector_2" fill="url(#paint0_linear_94_18836)" d="M38.9998 4V44H25.6665V4H38.9998Z"/><g id="Group_3" filter="url(#filter0_f_94_18836)"><path id="Vector_3" fill="black" fill-opacity="0.2" d="M30.6668 15.8334V44.1667H17.3335V14.1667H29.0002C29.9206 14.1667 30.6668 14.913 30.6668 15.8334Z"/></g><g id="Group_4" filter="url(#filter1_f_94_18836)"><path id="Vector_4" fill="black" fill-opacity="0.18" d="M30.6668 16.5V44.8333H17.3335V14.8333H29.0002C29.9206 14.8333 30.6668 15.5795 30.6668 16.5Z"/></g><path id="Vector_5" fill="url(#paint1_linear_94_18836)" d="M30.6668 15.6667V44H17.3335V14H29.0002C29.9206 14 30.6668 14.7462 30.6668 15.6667Z"/><path id="Vector_6" fill="url(#paint2_linear_94_18836)" d="M9 24V44H22.3333V25.6667C22.3333 24.7462 21.5871 24 20.6667 24H9Z"/></g></g></g></g><defs><filter id="filter0_f_94_18836" width="14.9335" height="31.6" x="16.5335" y="13.3667" color-interpolation-filters="sRGB" filterUnits="userSpaceOnUse"><feFlood flood-opacity="0" result="BackgroundImageFix"/><feBlend in="SourceGraphic" in2="BackgroundImageFix" result="shape"/><feGaussianBlur result="effect1_foregroundBlur_94_18836" stdDeviation="0.4"/></filter><filter id="filter1_f_94_18836" width="29.3335" height="46" x="9.3335" y="6.83331" color-interpolation-filters="sRGB" filterUnits="userSpaceOnUse"><feFlood flood-opacity="0" result="BackgroundImageFix"/><feBlend in="SourceGraphic" in2="BackgroundImageFix" result="shape"/><feGaussianBlur result="effect1_foregroundBlur_94_18836" stdDeviation="4"/></filter><linearGradient id="paint0_linear_94_18836" x1="23.4443" x2="41.027" y1="4" y2="41.2694" gradientUnits="userSpaceOnUse"><stop stop-color="#E6AD10"/><stop offset="1" stop-color="#C87E0E"/></linearGradient><linearGradient id="paint1_linear_94_18836" x1="17.3324" x2="32.1193" y1="14" y2="42.6776" gradientUnits="userSpaceOnUse"><stop stop-color="#F6D751"/><stop offset="1" stop-color="#E6AD10"/></linearGradient><linearGradient id="paint2_linear_94_18836" x1="8.99892" x2="17.1701" y1="24" y2="43.3656" gradientUnits="userSpaceOnUse"><stop stop-color="#F9E589"/><stop offset="1" stop-color="#F6D751"/></linearGradient></defs></svg>

<svg xmlns="http://www.w3.org/2000/svg" fill="none" aria-hidden="true" viewBox="0 0 48 48"><mask id="a" width="30" height="40" x="9" y="4" maskUnits="userSpaceOnUse" style="mask-type:alpha"><path fill="#fff" d="M25.667 5.667c0-.92.746-1.667 1.666-1.667h10C38.253 4 39 4.746 39 5.667v36.666c0 .92-.746 1.667-1.667 1.667H10.667C9.747 44 9 43.254 9 42.333V25.667c0-.92.746-1.667 1.667-1.667h6.666v-8.333c0-.92.747-1.667 1.667-1.667h6.667V5.667Z"/></mask><g mask="url(#a)"><path fill="url(#b)" d="M39 4v40H25.666V4H39Z"/><g filter="url(#c)"><path fill="#000" fill-opacity=".2" d="M30.667 15.833v28.334H17.333v-30H29c.92 0 1.667.746 1.667 1.666Z"/></g><g filter="url(#d)"><path fill="#000" fill-opacity=".18" d="M30.667 16.5v28.333H17.333v-30H29c.92 0 1.667.746 1.667 1.667Z"/></g><path fill="url(#e)" d="M30.667 15.667V44H17.333V14H29c.92 0 1.667.746 1.667 1.667Z"/><path fill="url(#f)" d="M9 24v20h13.333V25.667c0-.92-.746-1.667-1.666-1.667H9Z"/></g><defs><linearGradient id="b" x1="23.444" x2="41.027" y1="4" y2="41.269" gradientUnits="userSpaceOnUse"><stop stop-color="#E6AD10"/><stop offset="1" stop-color="#C87E0E"/></linearGradient><linearGradient id="e" x1="17.332" x2="32.119" y1="14" y2="42.678" gradientUnits="userSpaceOnUse"><stop stop-color="#F6D751"/><stop offset="1" stop-color="#E6AD10"/></linearGradient><linearGradient id="f" x1="8.999" x2="17.17" y1="24" y2="43.366" gradientUnits="userSpaceOnUse"><stop stop-color="#F9E589"/><stop offset="1" stop-color="#F6D751"/></linearGradient><filter id="c" width="14.934" height="31.6" x="16.534" y="13.367" color-interpolation-filters="sRGB" filterUnits="userSpaceOnUse"><feFlood flood-opacity="0" result="BackgroundImageFix"/><feBlend in="SourceGraphic" in2="BackgroundImageFix" result="shape"/><feGaussianBlur result="effect1_foregroundBlur_94_18836" stdDeviation=".4"/></filter><filter id="d" width="29.334" height="46" x="9.334" y="6.833" color-interpolation-filters="sRGB" filterUnits="userSpaceOnUse"><feFlood flood-opacity="0" result="BackgroundImageFix"/><feBlend in="SourceGraphic" in2="BackgroundImageFix" result="shape"/><feGaussianBlur result="effect1_foregroundBlur_94_18836" stdDeviation="4"/></filter></defs></svg>
